X:338
T:Bror Dahlgrens hambo
C:Bror Dahlgren
R:Hambo
Z:Patrik Månsson, 7/7 2008
O:Skåne
B:[[!Omtyckta Skånska Allspelslåtar]]
D:Inspelad av Jeanette Eriksson på skivan "Låtar på Skånska" (2007)
M:3/4
L:1/8
K:G

|: "G"D2 B,>D E>D | B,2 D>G B2  | "D7"d2 c>A F>A  |[1 "G"e2 d>B G2 :|[2 "G"G2 G4 |]
|: "G"g>a g2 B>d   | "Am"e>d c>B A>G | "D7"F>E D>e d>F |[1 "G"G2 G>B d2 :|[2 "G"G2 G4 |] 

(:musicend:)
Här finns fler låtar med [[!Ackord]].

(:music:)
